X:1
T:Flat: Foot -- Reel
R:reel
B:Ryan's Mammoth Collection
N:273
Z:Contributed by Ray Davies,  ray:davies99.freeserve.co.uk
M:2/4
L:1/16
K:G
vGc|\
BGAG BGAG | cedB .A(GFG) | BGAG BGAG | cedc G2(Gc) |
BGAG BGAG | cedB A3c | Bdef {a}gfge | dcAF G2:|
|:uG2|\
"^tr"Tg8 | vfgag bged | Bdef {a}gfge | dcAc .B(GFG) |
Bdef {a}gfge | fgag bged | "^tr"Tg8 | vdcAF G2:|
